X:1
T:Title
T:VI.Menuett
T:G F Haendel
T:feuerwerk-wasser music
T:transcription Ja'hé or make it ginger
C:Composer
%%score 1 ( 2 3 ) 4
L:1/8
M:3/4
K:Eb
V:1 treble nm="Oboe" snm="Ob."
V:2 treble nm="Violin" snm="Vln."
V:3 treble 
V:4 bass nm="Violoncello" snm="Vc."
V:1
 A2 c2 a2 | g2 c2 f2 | F2 F2 G2 | C2 F2 =E2 | F2 A2 c2 | F2 B2 G2 | A2 _dc BA | G6 :: F2 c2 =A2 | %9
 F2 =A2 B2 | e2 _d2 c2 | f2 e_d cB | e2 E2 _d2 | c2 cB A2 | G2 A2 B2 | =E6 | c4 f2 | F2 =A2 B2 | %18
 e2 _d2 c2 | f2 e_d cB | g2 c2 _a2 | g2 B2 A2 | B>G A2 GF | F6 :| %24
V:2
 c4 z2 | c6 | _d2 c2 Bc | A4 G2 | c2 f2 e2 | _d2 c2 B2 | c2 ba gf | [c=e]6 :: f4 c2 | _d2 cd B2 | %10
 c2 B2 =A2 | B2 Bc _d2 | cB A2 G2 | A2 AB c2 | _dc BA GA | G6 | f4 c2 | _d2 dc B z | c2 B2 =A2 | %19
 B2 Bc _d2 | c2 BA G[Ff] | [=E=e]2 [Cc]2 [Ff]2 | fg =e3 f | f6 :| %24
V:3
 x6 | x6 | x6 | x6 | x6 | x6 | x2 F2 F2 | x6 :: x6 | x6 | x6 | x6 | x6 | x6 | x6 | x6 | x6 | x6 | %18
 x6 | x6 | x6 | x6 | _d2 c2 B2 | A6 :| %24
V:4
 F,2 A,2 F,2 | =E,2 C,2 F,2 | B,2 A,2 G,2 | F,2 F,,2 C,2 | A,,2 F,,2 A,,2 | B,,2 _D,2 E,2 | %6
 A,,2 F,,2 A,,2 | C,2 =E,2 C,2 :: F,2 =A,2 F,2 | B,2 F,2 _G,2 | E,2 C,2 F,2 | _D,2 B,,2 E,2 | %12
 A,2 C,2 E,2 | A,,2 F,2 A,2 | B,,2 C,2 _D,2 | C,2 C2 B,2 | =A,2 F,2 A,2 | B,2 F,2 _G,2 | %18
 E,2 C,2 F,2 | _D,2 B,,2 B,2 | =E,2 F,2 B,,2 | C,2 =E,2 F,2 | B,,2 C,2 [C,,C,]2 | F,,6 :| %24

